assets/Mechanic/Medium-Light/Flat/mechanic_flat_medium-light.svg

<svg width="32" height="32" viewBox="0 0 32 32" fill="none" xmlns="http://www.w3.org/2000/svg">
<path d="M4 26.5V30H25.9844V26.5664C25.9892 23.153 24.4378 20.0827 22 18.047L21 18L20 16.7168C18.4982 15.9396 16.796 15.5 14.9922 15.5C13.1948 15.5 11.498 15.9321 10 16.698L9 18L8 18.0134C5.55709 20.0317 4 23.0852 4 26.5Z" fill="#D3D3D3"/>
<path d="M10 16.698C9.28445 17.0639 8.61422 17.5059 8 18.0133V30H22V18.047C21.386 17.5342 20.7158 17.0871 20 16.7167V22C20 22.5522 19.5523 23 19 23H11C10.4477 23 10 22.5522 10 22V16.698Z" fill="#0084CE"/>
<path d="M11.88 21.54L14.59 19.2C14.83 19 15.17 19 15.41 19.2L18.12 21.54C18.49 21.8 19 21.54 19 21.08V16.24C17.76 15.76 16.41 15.49 15 15.49C13.59 15.49 12.24 15.76 11 16.24V21.08C11 21.54 11.51 21.8 11.88 21.54Z" fill="#E6E6E6"/>
<path d="M12.24 24H10.79C9.8 24 9 24.8 9 25.79C9 26.78 9.8 27.58 10.79 27.58H12.24C13.23 27.58 14.03 26.78 14.03 25.79C14.03 24.8 13.23 24 12.24 24Z" fill="#F8312F"/>
<path d="M12.24 27.08H10.79C10.08 27.08 9.5 26.5 9.5 25.79C9.5 25.08 10.08 24.5 10.79 24.5H12.24C12.95 24.5 13.53 25.08 13.53 25.79C13.53 26.51 12.96 27.08 12.24 27.08Z" fill="#E6E6E6"/>
<path d="M15 18.67C13.8932 18.67 13 17.75 13 16.61V14.05C13 12.92 13.8932 12 15 12C16.1068 12 17 12.92 17 14.06V16.62C16.9903 17.75 16.0971 18.67 15 18.67Z" fill="#E4B29A"/>
<path d="M9.41003 7.56982H11.8V9.33491C12.03 9.26839 12.26 9.20016 12.49 9.12988V15.5899L10.6 14.9399C9.72 14.6299 9.13 13.8099 9.13 12.8799V10.0399L9.41003 9.96988V7.56982Z" fill="#FFF9BA"/>
<path d="M18.1901 7.56982H20.5801V9.98935C20.6766 10.0164 20.7732 10.0433 20.87 10.0698V12.8798C20.87 13.8098 20.28 14.6398 19.4 14.9398L17.51 15.5898V9.08984C17.737 9.1547 17.9636 9.2208 18.1901 9.28754V7.56982Z" fill="#FFF9BA"/>
<path d="M11.76 10.5899C11.76 11.5122 11.0124 12.2599 10.09 12.2599C9.16773 12.2599 8.42004 11.5122 8.42004 10.5899C8.42004 9.66761 9.16773 8.91992 10.09 8.91992C11.0124 8.91992 11.76 9.66761 11.76 10.5899Z" fill="#E4B29A"/>
<path d="M21.5601 10.5899C21.5601 11.5122 20.8124 12.2599 19.8901 12.2599C18.9678 12.2599 18.2201 11.5122 18.2201 10.5899C18.2201 9.66761 18.9678 8.91992 19.8901 8.91992C20.8124 8.91992 21.5601 9.66761 21.5601 10.5899Z" fill="#E4B29A"/>
<path d="M16.1713 3H13.8293C11.2063 3 9.22862 5.11756 9.53047 7.73692L9.926 13.5477C10.207 15.5247 11.9557 17 14.0166 17H15.9943C18.0656 17 19.8039 15.5247 20.0849 13.5477L20.4597 7.73692C20.8136 5.22796 18.7943 3 16.1713 3Z" fill="#EEBFAA"/>
<path d="M11.18 10.28C11.33 9.65995 11.89 9.19995 12.56 9.19995C13.25 9.19995 13.83 9.68995 13.96 10.35C13.99 10.5 13.88 10.63 13.73 10.63H11.45C11.27 10.63 11.13 10.45 11.18 10.28Z" fill="white"/>
<path d="M18.83 10.28C18.68 9.65995 18.12 9.19995 17.45 9.19995C16.75 9.19995 16.18 9.68995 16.05 10.35C16.02 10.5 16.13 10.63 16.28 10.63H18.56C18.74 10.63 18.87 10.46 18.83 10.28Z" fill="white"/>
<path d="M11.86 10.38C11.86 9.87997 12.27 9.46997 12.77 9.46997C13.28 9.46997 13.68 9.87997 13.68 10.38C13.68 10.46 13.67 10.54 13.65 10.62H11.89C11.87 10.54 11.86 10.46 11.86 10.38Z" fill="#7D4533"/>
<path d="M18.15 10.38C18.15 9.87997 17.74 9.46997 17.24 9.46997C16.73 9.46997 16.32 9.87997 16.33 10.38C16.33 10.46 16.34 10.54 16.36 10.62H18.12C18.14 10.54 18.15 10.46 18.15 10.38Z" fill="#7D4533"/>
<path d="M12.77 9.85986C13.06 9.85986 13.29 10.0899 13.29 10.3799C13.29 10.4699 13.27 10.5499 13.23 10.6199H12.31C12.27 10.5499 12.25 10.4699 12.25 10.3799C12.25 10.0899 12.48 9.85986 12.77 9.85986Z" fill="black"/>
<path d="M17.2401 9.85986C16.9501 9.85986 16.7201 10.0899 16.7201 10.3799C16.7201 10.4699 16.7401 10.5499 16.7801 10.6199H17.7001C17.7401 10.5499 17.7601 10.4699 17.7601 10.3799C17.7601 10.0899 17.5301 9.85986 17.2401 9.85986Z" fill="black"/>
<path d="M12.62 10.0199C12.62 10.1082 12.5484 10.1799 12.46 10.1799C12.3717 10.1799 12.3 10.1082 12.3 10.0199C12.3 9.9315 12.3717 9.85986 12.46 9.85986C12.5484 9.85986 12.62 9.9315 12.62 10.0199Z" fill="white"/>
<path d="M17.11 10.0199C17.11 10.1082 17.0384 10.1799 16.95 10.1799C16.8617 10.1799 16.79 10.1082 16.79 10.0199C16.79 9.9315 16.8617 9.85986 16.95 9.85986C17.0384 9.85986 17.11 9.9315 17.11 10.0199Z" fill="white"/>
<path d="M11.3451 8.89672C11.3916 8.92982 11.4473 8.94757 11.5044 8.94749C11.5662 8.94716 11.6261 8.92602 11.6744 8.88749C12.1162 8.59437 12.6481 8.46849 13.1744 8.53249C13.21 8.53707 13.2461 8.53445 13.2806 8.52478C13.3151 8.5151 13.3473 8.49857 13.3753 8.47617C13.4033 8.45377 13.4265 8.42597 13.4436 8.39441C13.4606 8.36285 13.4711 8.32819 13.4744 8.29249C13.4817 8.22115 13.4608 8.14978 13.4161 8.09369C13.3715 8.03761 13.3066 8.00127 13.2354 7.99249C12.5663 7.90574 11.8888 8.07153 11.3354 8.45749C11.2904 8.49262 11.2575 8.54092 11.2413 8.59567C11.225 8.65041 11.2263 8.70885 11.245 8.76283C11.2636 8.8168 11.2986 8.86361 11.3451 8.89672Z" fill="#A56953"/>
<path d="M18.3464 8.89149C18.3941 8.92775 18.4524 8.94742 18.5124 8.94749C18.5695 8.94792 18.6264 8.93041 18.673 8.89744C18.7197 8.86446 18.7548 8.81767 18.7735 8.76367C18.7921 8.70967 18.7934 8.65117 18.7771 8.59642C18.7607 8.54167 18.7276 8.49343 18.6824 8.45849C18.1283 8.07386 17.4515 7.90787 16.7824 7.99249C16.7119 8.00294 16.6483 8.04042 16.605 8.097C16.5617 8.15357 16.5421 8.22479 16.5505 8.29554C16.5588 8.36629 16.5943 8.43102 16.6496 8.476C16.7048 8.52098 16.7754 8.54268 16.8464 8.53649C17.3728 8.47142 17.905 8.59738 18.3464 8.89149Z" fill="#A56953"/>
<path d="M14.6901 10.3099L14.1601 12.0199C14.0501 12.3699 14.3101 12.7299 14.6801 12.7299H15.4601C15.8301 12.7299 16.0901 12.3699 15.9801 12.0199L15.4501 10.3099C15.3401 9.9299 14.8101 9.9299 14.6901 10.3099Z" fill="#D19479"/>
<path d="M15 13.6799C14.46 13.6799 13.95 13.5499 13.52 13.3199C13.37 13.2399 13.22 13.4099 13.31 13.5499C13.67 14.0999 14.29 14.4699 15 14.4699C15.71 14.4699 16.33 14.0999 16.69 13.5499C16.78 13.4099 16.62 13.2499 16.48 13.3199C16.05 13.5499 15.55 13.6799 15 13.6799Z" fill="#990838"/>
<path d="M19.78 3.51C18.87 2.43 17.49 2 16.05 2H15H13.94C12.5 2 11.12 2.43 10.21 3.51C9.51002 4.34 9.13002 5.86 9.41002 7.57L9.48002 7.56C9.52002 7.53 9.56002 7.5 9.60002 7.48C10.65 6.81 11.88 6.4 13.1 6.19C13.73 6.08 14.37 6.02 15 6.01C15.63 6.02 16.27 6.09 16.9 6.19C18.12 6.4 19.35 6.81 20.4 7.48C20.44 7.51 20.48 7.53 20.51 7.56L20.58 7.57C20.86 5.87 20.48 4.34 19.78 3.51Z" fill="#0084CE"/>
<path d="M11.3 6.25988C10.62 6.56988 10.01 6.99988 9.41003 7.56988L9.82003 8.07988C10.13 8.45988 10.67 8.56988 11.1 8.32988C11.86 7.90988 13.21 7.33988 15 7.33988C16.79 7.33988 18.14 7.90988 18.9 8.32988C19.33 8.56988 19.87 8.45988 20.17 8.07988L20.58 7.56988C19.98 6.99988 19.37 6.57988 18.69 6.25988C16.35 5.16988 13.64 5.16988 11.3 6.25988Z" fill="#00A6ED"/>
<path d="M26 23C26.55 23 27 23.4103 27 23.9119V26H25V23.9119C25.01 23.4103 25.45 23 26 23Z" fill="#E4B29A"/>
<path d="M25.6747 17.0429C25.484 16.9428 25.243 17.0729 25.243 17.293V18.844C25.243 19.2642 24.9017 19.6144 24.48 19.6044C24.0684 19.5944 23.7471 19.2642 23.7471 18.854V17.293C23.7471 17.0729 23.5061 16.9328 23.3154 17.0329C22.5322 17.4531 22.0102 18.2636 22.0001 19.2042C21.9901 20.1748 22.5523 21.0253 23.3656 21.4455C23.4559 21.4955 23.5162 21.5956 23.5162 21.6957V27.9994C23.5162 28.5497 23.968 29 24.5201 29C25.0723 29 25.5241 28.5497 25.5241 27.9994V21.6756C25.5241 21.5756 25.5844 21.4755 25.6747 21.4255C26.4679 21.0053 27 20.1748 27 19.2242C26.99 18.2936 26.4578 17.4631 25.6747 17.0429Z" fill="#9B9B9B"/>
<path d="M22.5091 25.5C22.5182 25.1 22.837 24.75 23.2105 24.75H26.2075C26.6447 24.75 27 25.14 27 25.62V29.13C27 29.61 26.6447 30 26.2075 30H23.2105C22.837 30 22.5182 29.69 22.5091 29.28C22.5 29.01 22.6184 28.77 22.8097 28.63C22.6184 28.5 22.5 28.27 22.5 28.01C22.5 27.75 22.6275 27.52 22.8097 27.39C22.6184 27.26 22.5 27.03 22.5 26.77C22.5 26.51 22.6275 26.28 22.8097 26.15C22.6275 26.01 22.5 25.77 22.5091 25.5Z" fill="#EEBFAA"/>
</svg>

<svg xmlns="http://www.w3.org/2000/svg" width="32" height="32" fill="none"><path fill="#D3D3D3" d="M4 26.5V30h21.984v-3.434A11.066 11.066 0 0 0 22 18.047L21 18l-1-1.283a10.863 10.863 0 0 0-5.008-1.217c-1.797 0-3.494.432-4.992 1.198L9 18l-1 .013A10.983 10.983 0 0 0 4 26.5Z"/><path fill="#0084CE" d="M10 16.698c-.716.366-1.386.808-2 1.315V30h14V18.047a11.026 11.026 0 0 0-2-1.33V22a1 1 0 0 1-1 1h-8a1 1 0 0 1-1-1v-5.302Z"/><path fill="#E6E6E6" d="m11.88 21.54 2.71-2.34c.24-.2.58-.2.82 0l2.71 2.34c.37.26.88 0 .88-.46v-4.84c-1.24-.48-2.59-.75-4-.75-1.41 0-2.76.27-4 .75v4.84c0 .46.51.72.88.46Z"/><path fill="#F8312F" d="M12.24 24h-1.45C9.8 24 9 24.8 9 25.79s.8 1.79 1.79 1.79h1.45c.99 0 1.79-.8 1.79-1.79S13.23 24 12.24 24Z"/><path fill="#E6E6E6" d="M12.24 27.08h-1.45c-.71 0-1.29-.58-1.29-1.29 0-.71.58-1.29 1.29-1.29h1.45c.71 0 1.29.58 1.29 1.29 0 .72-.57 1.29-1.29 1.29Z"/><path fill="#E4B29A" d="M15 18.67c-1.107 0-2-.92-2-2.06v-2.56c0-1.13.893-2.05 2-2.05s2 .92 2 2.06v2.56c-.01 1.13-.903 2.05-2 2.05Z"/><path fill="#FFF9BA" d="M9.41 7.57h2.39v1.765c.23-.067.46-.135.69-.205v6.46l-1.89-.65a2.185 2.185 0 0 1-1.47-2.06v-2.84l.28-.07v-2.4ZM18.19 7.57h2.39v2.42l.29.08v2.81c0 .93-.59 1.76-1.47 2.06l-1.89.65v-6.5c.227.065.454.13.68.198V7.57Z"/><path fill="#E4B29A" d="M11.76 10.59a1.67 1.67 0 1 1-3.34 0 1.67 1.67 0 0 1 3.34 0ZM21.56 10.59a1.67 1.67 0 1 1-3.34 0 1.67 1.67 0 0 1 3.34 0Z"/><path fill="#EEBFAA" d="M16.171 3H13.83c-2.623 0-4.6 2.118-4.299 4.737l.396 5.81c.281 1.978 2.03 3.453 4.09 3.453h1.978c2.072 0 3.81-1.475 4.09-3.452l.376-5.811C20.814 5.228 18.794 3 16.17 3Z"/><path fill="#fff" d="M11.18 10.28c.15-.62.71-1.08 1.38-1.08.69 0 1.27.49 1.4 1.15a.23.23 0 0 1-.23.28h-2.28c-.18 0-.32-.18-.27-.35ZM18.83 10.28c-.15-.62-.71-1.08-1.38-1.08-.7 0-1.27.49-1.4 1.15-.03.15.08.28.23.28h2.28c.18 0 .31-.17.27-.35Z"/><path fill="#7D4533" d="M11.86 10.38c0-.5.41-.91.91-.91.51 0 .91.41.91.91 0 .08-.01.16-.03.24h-1.76a.986.986 0 0 1-.03-.24ZM18.15 10.38c0-.5-.41-.91-.91-.91a.9.9 0 0 0-.91.91c0 .08.01.16.03.24h1.76c.02-.08.03-.16.03-.24Z"/><path fill="#000" d="M12.77 9.86a.516.516 0 0 1 .46.76h-.92a.516.516 0 0 1 .46-.76ZM17.24 9.86a.516.516 0 0 0-.46.76h.92a.516.516 0 0 0-.46-.76Z"/><path fill="#fff" d="M12.62 10.02a.16.16 0 1 1-.32 0 .16.16 0 0 1 .32 0ZM17.11 10.02a.16.16 0 1 1-.32 0 .16.16 0 0 1 .32 0Z"/><path fill="#A56953" d="M11.345 8.897a.274.274 0 0 0 .33-.01 2.227 2.227 0 0 1 1.5-.355.267.267 0 0 0 .3-.24.274.274 0 0 0-.24-.3 2.712 2.712 0 0 0-1.9.465.274.274 0 0 0 .01.44ZM18.346 8.891a.275.275 0 0 0 .327.006.273.273 0 0 0 .01-.439 2.731 2.731 0 0 0-1.9-.466.274.274 0 0 0 .063.544 2.215 2.215 0 0 1 1.5.355Z"/><path fill="#D19479" d="m14.69 10.31-.53 1.71c-.11.35.15.71.52.71h.78c.37 0 .63-.36.52-.71l-.53-1.71c-.11-.38-.64-.38-.76 0Z"/><path fill="#990838" d="M15 13.68c-.54 0-1.05-.13-1.48-.36-.15-.08-.3.09-.21.23.36.55.98.92 1.69.92s1.33-.37 1.69-.92c.09-.14-.07-.3-.21-.23-.43.23-.93.36-1.48.36Z"/><path fill="#0084CE" d="M19.78 3.51C18.87 2.43 17.49 2 16.05 2H13.94c-1.44 0-2.82.43-3.73 1.51-.7.83-1.08 2.35-.8 4.06l.07-.01c.04-.03.08-.06.12-.08 1.05-.67 2.28-1.08 3.5-1.29.63-.11 1.27-.17 1.9-.18.63.01 1.27.08 1.9.18 1.22.21 2.45.62 3.5 1.29.04.03.08.05.11.08l.07.01c.28-1.7-.1-3.23-.8-4.06Z"/><path fill="#00A6ED" d="M11.3 6.26c-.68.31-1.29.74-1.89 1.31l.41.51c.31.38.85.49 1.28.25.76-.42 2.11-.99 3.9-.99s3.14.57 3.9.99a1 1 0 0 0 1.27-.25l.41-.51c-.6-.57-1.21-.99-1.89-1.31a8.76 8.76 0 0 0-7.39 0Z"/><path fill="#E4B29A" d="M26 23c.55 0 1 .41 1 .912V26h-2v-2.088c.01-.502.45-.912 1-.912Z"/><path fill="#9B9B9B" d="M25.675 17.043c-.191-.1-.432.03-.432.25v1.551c0 .42-.341.77-.763.76a.746.746 0 0 1-.733-.75v-1.561c0-.22-.24-.36-.432-.26A2.482 2.482 0 0 0 22 19.204c-.01.97.552 1.821 1.366 2.241.09.05.15.15.15.25V28c0 .55.452 1.001 1.004 1.001s1.004-.45 1.004-1v-6.324c0-.1.06-.2.15-.25A2.487 2.487 0 0 0 27 19.224a2.52 2.52 0 0 0-1.325-2.181Z"/><path fill="#EEBFAA" d="M22.51 25.5c.008-.4.327-.75.7-.75h2.997c.438 0 .793.39.793.87v3.51c0 .48-.355.87-.793.87H23.21c-.373 0-.692-.31-.7-.72-.01-.27.108-.51.3-.65a.74.74 0 0 1-.31-.62c0-.26.128-.49.31-.62a.74.74 0 0 1-.31-.62c0-.26.128-.49.31-.62a.79.79 0 0 1-.3-.65Z"/></svg>
